icons/krita.svg

<svg width="16" height="16" viewBox="0 0 16 16" fill="none" xmlns="http://www.w3.org/2000/svg">
<path fill-rule="evenodd" clip-rule="evenodd" d="M3.71039 3.80485C2.65224 4.88668 2 6.36717 2 8C2 11.3137 4.68629 14 8 14C11.3137 14 14 11.3137 14 8C14 4.68629 11.3137 2 8 2C7.27226 2 6.57477 2.12956 5.92936 2.36688C5.93691 2.37392 5.94445 2.38095 5.95199 2.38798C7.23721 3.58604 8.46456 4.73016 10.1429 7.00772C10.5798 6.96215 11.0392 7.11702 11.3746 7.51062C12.2492 8.53676 12.4678 11.3587 10.2814 12C10.828 11.3587 10.2814 10.076 9.73482 9.43464L9.7348 9.43461C9.44152 9.09051 8.70444 8.22567 9.1284 7.58965C7.64944 6.77942 5.18592 5.06794 3.71039 3.80485ZM8.92125 9.50924C8.35104 9.82209 7.6963 10 7.00001 10C5.5782 10 4.32966 9.25819 3.6203 8.14048C3.65163 10.5535 5.61748 12.5 8.03796 12.5C8.47056 12.5 8.88865 12.4378 9.28376 12.3219C9.42695 11.9866 9.49999 11.5631 9.49999 11C9.49999 10.6229 9.23766 10.1181 8.95616 9.57645L8.95616 9.57645L8.92125 9.50924Z" fill="url(#paint0_radial_1341_23)"/>
<defs>
<radialGradient id="paint0_radial_1341_23" cx="0" cy="0" r="1" gradientUnits="userSpaceOnUse" gradientTransform="translate(8 5.5) rotate(90) scale(8.5)">
<stop offset="0.326042" stop-color="#69DEAD"/>
<stop offset="0.695833" stop-color="#69B4F9"/>
<stop offset="1" stop-color="#2E99E7"/>
</radialGradient>
</defs>
</svg>

<svg xmlns="http://www.w3.org/2000/svg" width="16" height="16" fill="none"><path fill="url(#a)" fill-rule="evenodd" d="M3.71 3.805A6 6 0 1 0 5.93 2.367l.023.021c1.285 1.198 2.513 2.342 4.19 4.62.438-.046.897.109 1.233.503.874 1.026 1.093 3.848-1.094 4.489.547-.641 0-1.924-.546-2.565-.293-.344-1.03-1.21-.607-1.845C7.65 6.78 5.186 5.068 3.71 3.805Zm5.211 5.704A3.997 3.997 0 0 1 3.62 8.14a4.418 4.418 0 0 0 5.664 4.182c.143-.335.216-.759.216-1.322 0-.377-.262-.882-.544-1.424l-.035-.067Z" clip-rule="evenodd"/><defs><radialGradient id="a" cx="0" cy="0" r="1" gradientTransform="matrix(0 8.5 -8.5 0 8 5.5)" gradientUnits="userSpaceOnUse"><stop offset=".326" stop-color="#69DEAD"/><stop offset=".696" stop-color="#69B4F9"/><stop offset="1" stop-color="#2E99E7"/></radialGradient></defs></svg>
